X: 10
T: Tam Lin
R: reel
M: 4/4
L: 1/8
K: Amin
|:EA (3~AGA cA~AE|FA (3~AGA cA~AF|GB (3~BAB cBAB|1cBAG AGED:|2cBAG AGEA||||A2 a^g ~aecA|~Aa ~a^g aecA|g2 (^fg) (^cd) (_B=B)|(^FG) (_B=B) (^cd) (^fg)||~a2. ^g ~aecA|~Aa ~a^g aecA|~FEFG Acde|~gedc BGAG||


Tune 248	Setting 23449

